Front/img/common-section_compare/illu-3.svg

<svg width="225" height="225" viewBox="0 0 225 225" fill="none" xmlns="http://www.w3.org/2000/svg">
<path d="M172.88 63.8639L92.88 109.154V17.2539C72.6945 17.2667 53.0752 23.9279 37.0546 36.2078C21.0341 48.4878 9.50442 65.7028 4.24773 85.1918C-1.00897 104.681 0.300038 125.359 7.97242 144.029C15.6448 162.7 29.2533 178.323 46.6945 188.485C64.1357 198.647 84.4384 202.781 104.464 200.248C124.49 197.715 143.125 188.657 157.487 174.473C171.849 160.289 181.139 141.769 183.921 121.776C186.704 101.783 182.823 81.4305 172.88 63.8639Z" fill="#E1E1E1"/>
<path d="M97.0703 190.283C97.8249 189.53 98.7225 188.935 99.7103 188.533C102.494 188.065 105.302 187.758 108.12 187.613C109.62 187.613 115.57 190.213 116.01 190.503C116.45 190.793 116.71 192.253 114.42 192.183C112.13 192.113 97.0703 190.283 97.0703 190.283Z" fill="#E5B9B7"/>
<path d="M99.1094 200.145C99.1094 200.145 101.109 215.285 119.109 222.405C137.109 229.525 147.939 219.505 147.939 219.505L137.049 177.145L99.1094 200.145Z" fill="#FF8139"/>
<path d="M178.207 127.462C175.494 129.47 172.927 131.669 170.527 134.042C167.457 137.182 161.327 140.402 157.207 139.572L166.117 120.512C166.117 120.512 171.417 117.272 173.887 116.862C176.357 116.452 186.517 118.052 190.167 119.602C190.301 119.648 190.424 119.723 190.528 119.82C190.631 119.918 190.713 120.036 190.766 120.168C190.82 120.3 190.846 120.441 190.841 120.583C190.836 120.725 190.8 120.865 190.737 120.992C190.737 120.992 192.007 121.442 192.097 122.122C192.277 123.432 190.307 123.402 188.497 123.312C188.497 123.312 188.827 124.642 186.767 124.792C183.687 124.639 180.653 125.585 178.207 127.462Z" fill="#F4C7C3"/>
<path d="M161.82 139.191C162.699 138.918 163.558 138.583 164.39 138.191C163.561 138.592 162.702 138.926 161.82 139.191Z" fill="#E5B9B7"/>
<path d="M161.07 139.391C161.31 139.331 161.56 139.271 161.81 139.191C161.35 139.331 161.07 139.391 161.07 139.391Z" fill="#E5B9B7"/>
<path d="M164.391 138.233L164.991 137.953L164.391 138.233Z" fill="#E5B9B7"/>
<path d="M167.791 121.312C167.791 121.312 168.651 120.822 169.791 120.222C171.425 119.314 173.169 118.622 174.981 118.162C177.391 117.782 183.291 119.312 185.231 119.712C187.171 120.112 190.711 120.992 190.711 120.992C190.501 122.292 192.081 122.372 192.081 122.372C191.951 123.302 190.701 123.292 189.681 123.372C188.863 123.379 188.048 123.291 187.251 123.112C187.268 123.646 187.469 124.158 187.821 124.562C187.493 124.749 187.118 124.839 186.741 124.822C184.31 124.818 181.912 125.387 179.741 126.482C176.841 128.192 173.971 130.912 169.901 134.652C168.447 135.976 166.811 137.085 165.041 137.942H164.961L164.361 138.222C163.528 138.614 162.669 138.948 161.791 139.222C161.541 139.302 161.291 139.362 161.051 139.422L167.791 121.312Z" fill="#E5B9B7"/>
<path d="M177.13 116.761C181.13 116.691 176.61 114.011 174.22 113.501C171.83 112.991 166.5 112.241 164.82 114.501C163.14 116.761 150.45 134.781 148.47 135.611C146.49 136.441 134.42 138.201 134.42 138.201C112.06 140.761 103.31 138.911 98.19 136.641C93.07 134.371 92.47 120.641 84.65 112.411C76.83 104.181 77.35 95.6312 70.74 97.5112C63.12 99.6712 63.23 97.1512 63.23 97.1512L62.59 96.0012C60.9668 91.9096 59.9039 87.6174 59.43 83.2412C62.75 83.9512 62.49 84.1812 65.55 83.3512C83.55 78.4212 66.88 30.1712 66.88 30.1712C61.93 17.0112 28.94 27.5112 24.79 34.8712C20.79 41.9512 26.59 52.7412 26.59 52.7412C22.47 52.5912 22 55.9212 22 55.9212C21.16 63.0812 31.45 67.7212 31.45 67.7212L32.45 68.9812C41.59 81.8512 39.3 90.9812 37.6 94.8712C37.22 95.6812 34 97.5712 30.7 97.5112C26.5 97.4512 14.89 97.7412 9.03999 112.201C-2.07001 139.631 8.17999 180.341 14.09 184.321C20 188.301 76.55 196.321 76.55 196.321L82.31 200.171L89.15 202.171C91.34 202.901 95.67 204.851 101.15 206.311C108.02 208.111 109.02 208.521 110.88 208.751C112.97 209.001 112.63 209.201 115.26 209.441C117.26 209.621 117.26 208.011 117.26 208.011L120.72 208.901C123.54 208.711 122.38 205.491 122.38 205.491C122.715 205.369 123.014 205.164 123.25 204.896C123.486 204.629 123.651 204.306 123.731 203.958C123.81 203.611 123.801 203.248 123.705 202.905C123.609 202.561 123.428 202.247 123.18 201.991C122.58 201.501 117.18 198.401 116.04 197.671C114.9 196.941 110.39 194.421 110.39 194.421C110.39 194.421 116.94 196.191 117.31 196.691C119.199 198.271 121.176 199.743 123.23 201.101C124.42 201.701 125.59 199.771 124.83 198.761C124.07 197.751 119.67 193.481 117.66 192.601C115.65 191.721 112.17 189.091 110.54 188.341C108.91 187.591 108.54 189.061 103.85 188.931C99.16 188.801 100.85 188.871 100.12 188.721C99.39 188.571 98.38 187.971 97.12 187.721C95.8766 187.684 94.6386 187.899 93.48 188.351L82 185.691H96.86C95.59 155.711 93.2 140.001 93.2 140.001C93.2 140.001 88.37 165.421 105.5 163.001C122.63 160.581 151.61 144.221 153.02 143.351C153.65 142.961 155.34 141.961 157.29 140.501C166.57 139.271 163.92 131.111 169.62 131.111C176.21 131.111 177.52 130.731 177.52 129.511C177.52 128.291 170.94 127.661 166.65 127.511C167.36 124.431 167.46 121.511 168.55 118.801C169.81 115.631 174.16 116.811 177.13 116.761Z" fill="#F4C7C3"/>
<path opacity="0.1" d="M68.168 82.1945C72.278 78.1145 69.868 66.6345 70.658 62.5045C71.448 58.3745 64.598 54.6745 64.758 44.1445C64.878 36.2845 59.938 27.9045 57.418 24.1445C61.928 24.7145 65.498 26.5445 66.878 30.2145C66.878 30.2145 81.798 73.3345 68.168 82.1945Z" fill="black"/>
<path opacity="0.1" d="M59.3981 98.3828C57.9481 97.0428 55.5781 82.3828 55.5781 82.3828L59.3981 83.3828C59.8709 87.7592 60.9339 92.0515 62.5581 96.1428L63.1981 97.2928C63.1981 97.2928 65.7081 98.9728 70.7581 98.2128L69.6381 98.5928C66.1981 99.3428 60.8481 99.7228 59.3981 98.3828Z" fill="black"/>
<path d="M125.099 139.104C109.469 140.214 102.529 138.604 98.1889 136.674C93.0689 134.394 94.5989 119.914 87.4889 108.674C81.4189 99.0642 77.3489 95.6742 70.7389 97.5742C69.4589 97.9342 71.6789 97.5742 70.6289 97.7242V96.5242C67.3189 94.7842 61.9389 94.2842 61.9389 94.2842C62.0489 94.5942 62.8289 96.9642 63.2289 97.1842C63.6289 97.4042 60.7689 97.8542 60.7689 97.8542C60.2117 99.1391 59.3707 100.281 58.3089 101.194L55.9289 116.004L50.2889 102.604C43.0789 101.064 37.9989 94.0742 37.9989 94.0742C36.5552 94.1994 35.1727 94.7144 33.9989 95.5642C33.4589 95.4842 32.3389 97.6842 31.6989 97.5642C27.6289 96.5642 13.6989 98.5642 6.77892 112.484C4.12892 117.894 0.618921 132.004 0.348921 140.884C0.348921 140.884 -0.831079 164.064 1.14892 181.464C1.14892 181.464 15.5389 185.464 22.2889 186.944C32.8089 189.444 50.6789 192.364 63.0389 194.264L64.2089 180.354L81.9989 185.694H96.8589C95.5889 155.714 93.1989 140.004 93.1989 140.004C93.1989 140.004 88.3689 165.424 105.499 163.004C111.649 162.134 119.319 159.464 126.699 156.364L125.099 139.104Z" fill="#F4EFEF"/>
<path d="M64.4308 177.824L63.0008 194.264L47.3008 191.744L48.6108 171.744C48.8873 171.433 49.237 171.197 49.6281 171.055C50.0193 170.914 50.4395 170.872 50.8508 170.934C52.2008 171.204 53.5408 173.714 53.5408 173.714C53.7238 173.438 53.9791 173.217 54.2789 173.076C54.5786 172.935 54.9113 172.879 55.2408 172.914C56.3208 173.084 57.3008 175.144 57.3008 175.144C57.478 174.506 57.8784 173.954 58.4291 173.587C58.9797 173.219 59.644 173.062 60.3008 173.144C62.5908 173.484 64.4308 177.824 64.4308 177.824Z" fill="#E0DEDE"/>
<path d="M55.2398 117.353L49.2398 108.073L46.7598 116.923L38.0898 106.562L46.6598 118.323C46.6598 118.323 47.8998 115.413 49.2998 115.413C50.6998 115.413 51.1398 119.183 55.2398 117.353Z" fill="#E0DEDE"/>
<path d="M57.418 116.903L59.648 107.653L63.648 113.053L65.208 106.562L63.968 114.562C63.6964 114.758 63.3868 114.895 63.0592 114.963C62.7316 115.031 62.3933 115.03 62.0662 114.959C61.739 114.889 61.4304 114.75 61.1603 114.552C60.8901 114.355 60.6645 114.103 60.498 113.812C59.168 111.632 57.418 116.903 57.418 116.903Z" fill="#E0DEDE"/>
<path d="M48.6075 171.783C48.6075 171.783 38.8575 166.783 36.2775 165.913L28.6875 163.363L32.2775 141.883C32.2775 141.883 29.1275 154.623 31.4175 156.883C33.7075 159.143 38.5475 157.113 41.4175 163.393C44.2875 169.673 48.6075 171.783 48.6075 171.783Z" fill="#E0DEDE"/>
<path d="M95.2607 155.534C88.0007 147.844 102.001 144.004 95.7707 142.114C89.5407 140.224 91.8407 128.824 91.8407 128.824L93.2007 140.004C93.2007 140.004 88.3707 165.424 105.501 163.004C107.644 162.68 109.765 162.223 111.851 161.634C109.151 161.874 101.191 161.824 95.2607 155.534Z" fill="#E0DEDE"/>
<path d="M58.25 94.0547L58.26 94.0647L58.25 94.0547Z" fill="#F4EBEA"/>
<path d="M141.849 137.054C138.179 137.684 134.419 138.234 134.419 138.234C112.059 140.794 103.569 138.234 98.1888 136.674C89.8288 134.204 94.5988 114.814 86.7788 106.564C78.9588 98.3142 77.3488 95.6642 70.7788 97.5642C64.2088 99.4642 62.7788 94.7542 61.9788 94.3042C62.1588 95.5642 59.6988 100.014 57.7188 100.644L56.2588 106.004L51.2588 100.654C44.8888 99.4042 37.9988 94.0742 37.9988 94.0742C37.6088 94.8842 38.9988 99.3442 31.7488 97.5242C27.6788 96.5242 14.8988 97.7442 9.04884 112.204C-3.16116 142.354 4.65884 176.564 14.0988 184.324C19.5988 188.844 76.5588 196.324 76.5588 196.324L76.6388 198.864L82.3188 200.174C81.9888 192.414 87.4088 186.984 87.4088 186.984L81.9988 185.694H96.8588C95.5888 155.714 93.1988 140.004 93.1988 140.004C93.1988 140.004 88.3688 165.424 105.499 163.004C117.149 161.354 134.269 153.274 144.499 148.004C139.579 143.414 141.849 137.054 141.849 137.054Z" fill="#F4EBEA"/>
<path d="M58.25 94.0547L58.26 94.0647L58.25 94.0547Z" fill="#F4EBEA"/>
<path d="M58.25 94.0547L58.26 94.0647L58.25 94.0547Z" fill="#292289"/>
<path d="M6.47823 111.735C10.3182 100.475 21.9982 96.5647 27.6182 96.0547L38.0282 94.0547C38.0282 94.0547 44.0282 117.875 55.6382 133.735L57.4182 172.685L82.8382 185.685L82.6782 185.845C81.3211 187.303 80.2908 189.034 79.6562 190.922C79.0216 192.811 78.7973 194.813 78.9982 196.795L79.0782 199.335L76.7082 198.815C76.7082 198.815 41.6382 191.335 23.8282 187.295C22.3482 186.955 20.9882 186.635 19.7782 186.295L3.64823 182.295C3.64823 182.295 -4.41177 143.675 6.47823 111.735Z" fill="#152D5D"/>
<path d="M136.527 137.915L134.417 138.235C112.057 140.795 103.308 138.945 98.1875 136.675C93.0675 134.405 95.8575 120.235 91.8375 109.595C89.1475 102.485 86.3075 95.1347 75.4875 94.0547L61.9375 94.2847C62.2455 95.3394 62.6928 96.3482 63.2675 97.2847L63.4675 97.4047C64.2262 97.7287 65.0128 97.983 65.8175 98.1647C65.8175 98.1647 71.5675 116.025 69.3375 133.345L76.7775 183.255L82.8375 185.685H96.8375C95.5675 155.685 95.1375 158.605 95.1375 158.605C95.1375 158.605 88.3475 165.455 105.478 163.035C115.228 161.655 130.137 159.515 140.298 154.535C138.757 152.005 135.587 143.815 136.527 137.915Z" fill="#152D5D"/>
<path d="M53.6008 139.554L52.8208 134.384L49.9308 138.774C46.3088 134.962 43.2358 130.664 40.8008 126.004C43.0271 131.146 46.0997 135.878 49.8908 140.004L52.7408 135.664L53.6008 139.554Z" fill="#0C2048"/>
<path d="M70.4688 138.001L71.8087 133.001L74.9088 136.001C74.9088 136.001 77.1788 127.111 76.7188 119.941C77.3293 125.858 76.7755 131.837 75.0887 137.541L72.0887 134.461L70.4688 138.001Z" fill="#0C2048"/>
<path d="M48.7091 169.122C48.7091 169.122 42.9991 165.812 40.7991 166.002C38.5991 166.192 33.4391 166.002 33.4391 166.002C33.4391 166.002 30.7891 152.182 30.7891 146.242C30.7891 146.242 31.3891 154.422 33.5191 157.682C35.6491 160.942 37.9891 159.582 41.6991 162.512C45.4091 165.442 44.9991 167.172 48.7091 169.122Z" fill="#0C2048"/>
<path d="M140.321 154.543C140.321 154.543 140.781 153.343 140.321 150.133L138.641 150.963C139.095 152.203 139.657 153.401 140.321 154.543Z" fill="#151563"/>
<path opacity="0.1" d="M76.6675 182.544L73.4575 161.004L70.4575 140.924L69.3275 133.334C70.0508 129.156 70.1855 124.898 69.7275 120.684C69.1175 114.584 69.3875 106.914 66.3075 99.8438C66.3075 99.8438 67.6575 106.084 67.2075 110.554C66.9275 113.364 64.8375 121.824 66.2075 128.354C67.5775 134.884 69.8575 136.514 69.4175 145.484C68.9775 154.454 68.5375 169.114 76.6675 182.544Z" fill="black"/>
<path d="M75.9293 66.643C75.4554 64.448 74.6991 62.3236 73.6793 60.323C73.6793 60.323 73.5693 63.393 70.6793 62.503C66.4093 61.193 60.2893 60.953 53.6793 67.263C47.0693 73.573 37.6793 64.333 36.2493 59.473C34.8193 54.613 30.5393 43.213 33.6993 40.173C36.8593 37.133 44.9993 41.513 53.7793 38.473C62.5593 35.433 66.2593 28.283 67.2393 31.803C67.7578 33.7215 68.3787 35.6109 69.0993 37.463C69.0993 37.463 71.2493 24.763 67.9993 19.783C64.7493 14.803 58.6293 15.533 53.2893 17.483C47.9493 19.433 42.1193 18.483 39.2893 18.483C36.7649 18.6068 34.3037 19.3153 32.0998 20.5527C29.8959 21.79 28.0095 23.5222 26.5893 25.613C22.6993 31.313 18.2093 30.343 17.7293 35.613C17.2493 40.883 24.6593 50.983 26.5893 52.833C27.8893 54.063 31.2593 60.213 34.2193 66.653C33.9593 67.573 33.2193 68.143 31.4893 67.773C32.8245 71.1238 34.5498 74.3057 36.6293 77.253C39.2693 80.853 47.4693 86.253 59.3493 86.373C62.2302 86.5146 65.1033 85.966 67.7293 84.773C76.2193 80.683 77.0793 71.133 75.9293 66.643Z" fill="#594423"/>
<path d="M46.3876 77.6338C41.7076 76.7838 37.6776 74.6338 36.0776 67.5438C34.4776 60.4538 24.9276 45.3438 22.5876 39.0737C20.2476 32.8037 27.4776 32.9137 27.9976 28.3438C28.3276 25.4938 30.7376 22.3438 32.4976 20.3438C30.1182 21.5964 28.0848 23.4169 26.5776 25.6438C22.6876 31.3438 18.1976 30.3737 17.7176 35.6437C17.2376 40.9137 24.6476 51.0138 26.5776 52.8638C27.8776 54.0938 31.2476 60.2438 34.2076 66.6838C33.9476 67.6037 33.2076 68.1737 31.4776 67.8037C32.8128 71.1546 34.538 74.3365 36.6176 77.2837C39.2576 80.8837 47.4576 86.2837 59.3376 86.4037C61.0166 86.466 62.6967 86.3148 64.3376 85.9538C56.4476 87.0038 51.0576 78.4837 46.3876 77.6338Z" fill="#3E2F1C"/>
<path d="M35.6992 19.003C35.6992 19.003 40.2892 23.003 48.6992 22.293C51.6792 22.063 60.0992 16.813 63.5092 19.003C66.9192 21.193 68.6092 24.863 67.2392 31.783C67.7577 33.7015 68.3786 35.5909 69.0992 37.443C69.0992 37.443 71.2492 24.763 67.9992 19.783C64.7492 14.803 58.6292 15.533 53.2892 17.483C47.9492 19.433 42.1192 18.483 39.2892 18.483C38.0748 18.4969 36.8676 18.6717 35.6992 19.003Z" fill="#674F2D"/>
<path d="M75.9272 66.6442C75.4533 64.4492 74.697 62.3249 73.6772 60.3242C73.6772 60.3242 73.5672 63.3942 70.6772 62.5042C68.741 61.8776 66.6993 61.6433 64.6715 61.815C62.6437 61.9867 60.6705 62.561 58.8672 63.5042C59.1772 63.4342 69.6072 60.9742 72.4472 65.6642C75.2872 70.3542 74.8272 77.3042 71.2372 82.4142C76.4172 77.7542 76.8972 70.4142 75.9272 66.6442Z" fill="#674F2D"/>
<path d="M172.69 145.932C172.69 145.932 187.47 149.762 200.84 135.792C214.21 121.822 209 108.002 209 108.002L165.66 102.152L172.69 145.932Z" fill="#00181B"/>
<path d="M169.098 127.672C171.112 127.802 173.116 128.059 175.098 128.442C176.408 128.872 176.948 129.332 176.878 130.032C176.808 130.732 175.408 131.272 173.628 131.232L169.988 131.152L169.098 127.672Z" fill="#F4C7C3"/>
</svg>

<svg xmlns="http://www.w3.org/2000/svg" fill="none" viewBox="0 0 225 225"><path fill="#E1E1E1" d="M172.88 63.864l-80 45.29v-91.9a91.86 91.86 0 1080 46.61z"/><path fill="#E5B9B7" d="M97.07 190.283a8.014 8.014 0 012.64-1.75 73.507 73.507 0 018.41-.92c1.5 0 7.45 2.6 7.89 2.89.44.29.7 1.75-1.59 1.68-2.29-.07-17.35-1.9-17.35-1.9z"/><path fill="#FF8139" d="M99.11 200.145s1.999 15.14 19.999 22.26c18 7.12 28.83-2.9 28.83-2.9l-10.89-42.36-37.94 23z"/><path fill="#F4C7C3" d="M178.207 127.462a70.995 70.995 0 00-7.68 6.58c-3.07 3.14-9.2 6.36-13.32 5.53l8.91-19.06s5.3-3.24 7.77-3.65c2.47-.41 12.63 1.19 16.28 2.74a.991.991 0 01.599.566 1.002 1.002 0 01-.029.824s1.27.45 1.36 1.13c.18 1.31-1.79 1.28-3.6 1.19 0 0 .33 1.33-1.73 1.48a13 13 0 00-8.56 2.67z"/><path fill="#E5B9B7" d="M161.82 139.191a19.837 19.837 0 002.57-1c-.829.401-1.688.735-2.57 1zM161.07 139.391c.24-.06.49-.12.74-.2-.46.14-.74.2-.74.2zM164.391 138.233l.6-.28-.6.28z"/><path fill="#E5B9B7" d="M167.791 121.312s.86-.49 2-1.09a21.65 21.65 0 015.19-2.06c2.41-.38 8.31 1.15 10.25 1.55 1.94.4 5.48 1.28 5.48 1.28-.21 1.3 1.37 1.38 1.37 1.38-.13.93-1.38.92-2.4 1a10.671 10.671 0 01-2.43-.26 2.32 2.32 0 00.57 1.45 2 2 0 01-1.08.26 15.488 15.488 0 00-7 1.66c-2.9 1.71-5.77 4.43-9.84 8.17a20.467 20.467 0 01-4.86 3.29h-.08l-.6.28c-.833.392-1.692.726-2.57 1-.25.08-.5.14-.74.2l6.74-18.11z"/><path fill="#F4C7C3" d="M177.13 116.761c4-.07-.52-2.75-2.91-3.26-2.39-.51-7.72-1.26-9.4 1-1.68 2.26-14.37 20.28-16.35 21.11-1.98.83-14.05 2.59-14.05 2.59-22.36 2.56-31.11.71-36.23-1.56-5.12-2.27-5.72-16-13.54-24.23-7.82-8.23-7.3-16.78-13.91-14.9-7.62 2.16-7.51-.36-7.51-.36l-.64-1.15a48.871 48.871 0 01-3.16-12.76c3.32.71 3.06.94 6.12.11 18-4.93 1.33-53.18 1.33-53.18-4.95-13.16-37.94-2.66-42.09 4.7-4 7.08 1.8 17.87 1.8 17.87-4.12-.15-4.59 3.18-4.59 3.18-.84 7.16 9.45 11.8 9.45 11.8l1 1.26c9.14 12.87 6.85 22 5.15 25.89-.38.81-3.6 2.7-6.9 2.64-4.2-.06-15.81.23-21.66 14.69-11.11 27.43-.86 68.14 5.05 72.12 5.91 3.98 62.46 12 62.46 12l5.76 3.85 6.84 2c2.19.73 6.52 2.68 12 4.14 6.87 1.8 7.87 2.21 9.73 2.44 2.09.25 1.75.45 4.38.69 2 .18 2-1.43 2-1.43l3.46.89c2.82-.19 1.66-3.41 1.66-3.41a2.132 2.132 0 001.351-1.533 2.146 2.146 0 00-.551-1.967c-.6-.49-6-3.59-7.14-4.32-1.14-.73-5.65-3.25-5.65-3.25s6.55 1.77 6.92 2.27a65.723 65.723 0 005.92 4.41c1.19.6 2.36-1.33 1.6-2.34-.76-1.01-5.16-5.28-7.17-6.16-2.01-.88-5.49-3.51-7.12-4.26s-2 .72-6.69.59-3-.06-3.73-.21-1.74-.75-3-1a9.259 9.259 0 00-3.64.63L82 185.691h14.86c-1.27-29.98-3.66-45.69-3.66-45.69s-4.83 25.42 12.3 23c17.13-2.42 46.11-18.78 47.52-19.65.63-.39 2.32-1.39 4.27-2.85 9.28-1.23 6.63-9.39 12.33-9.39 6.59 0 7.9-.38 7.9-1.6 0-1.22-6.58-1.85-10.87-2 .71-3.08.81-6 1.9-8.71 1.26-3.17 5.61-1.99 8.58-2.04z"/><path fill="#000" d="M68.168 82.195c4.11-4.08 1.7-15.56 2.49-19.69.79-4.13-6.06-7.83-5.9-18.36.12-7.86-4.82-16.24-7.34-20 4.51.57 8.08 2.4 9.46 6.07 0 0 14.92 43.12 1.29 51.98zM59.398 98.383c-1.45-1.34-3.82-16-3.82-16l3.82 1a48.783 48.783 0 003.16 12.76l.64 1.15s2.51 1.68 7.56.92l-1.12.38c-3.44.75-8.79 1.13-10.24-.21z" opacity=".1"/><path fill="#F4EFEF" d="M125.099 139.104c-15.63 1.11-22.57-.5-26.91-2.43-5.12-2.28-3.59-16.76-10.7-28-6.07-9.61-10.14-13-16.75-11.1-1.28.36.94 0-.11.15v-1.2c-3.31-1.74-8.69-2.24-8.69-2.24.11.31.89 2.68 1.29 2.9.4.22-2.46.67-2.46.67a9.267 9.267 0 01-2.46 3.34l-2.38 14.81-5.64-13.4c-7.21-1.54-12.29-8.53-12.29-8.53a8 8 0 00-4 1.49c-.54-.08-1.66 2.12-2.3 2-4.07-1-18 1-24.92 14.92-2.65 5.41-6.16 19.52-6.43 28.4 0 0-1.18 23.18.8 40.58 0 0 14.39 4 21.14 5.48 10.52 2.5 28.39 5.42 40.75 7.32l1.17-13.91 17.79 5.34h14.86c-1.27-29.98-3.66-45.69-3.66-45.69s-4.83 25.42 12.3 23c6.15-.87 13.82-3.54 21.2-6.64l-1.6-17.26z"/><path fill="#E0DEDE" d="M64.43 177.824L63 194.264l-15.7-2.52 1.31-20a2.503 2.503 0 012.24-.81c1.35.27 2.69 2.78 2.69 2.78a1.81 1.81 0 011.7-.8c1.08.17 2.06 2.23 2.06 2.23a2.757 2.757 0 013-2c2.29.34 4.13 4.68 4.13 4.68zM55.24 117.353l-6-9.28-2.48 8.85-8.67-10.361 8.57 11.761s1.24-2.91 2.64-2.91c1.4 0 1.84 3.77 5.94 1.94zM57.418 116.903l2.23-9.25 4 5.4 1.56-6.491-1.24 8a2.38 2.38 0 01-1.902.397 2.372 2.372 0 01-.906-.407 2.375 2.375 0 01-.662-.74c-1.33-2.18-3.08 3.091-3.08 3.091z"/><path fill="#E0DEDE" d="M48.608 171.783s-9.75-5-12.33-5.87l-7.59-2.55 3.59-21.48s-3.15 12.74-.86 15 7.13.23 10 6.51c2.87 6.28 7.19 8.39 7.19 8.39zM95.26 155.534c-7.26-7.69 6.741-11.53.51-13.42-6.23-1.89-3.93-13.29-3.93-13.29l1.36 11.18s-4.83 25.42 12.301 23a51.945 51.945 0 006.35-1.37c-2.7.24-10.66.19-16.59-6.1z"/><path fill="#F4EBEA" d="M58.25 94.055l.01.01-.01-.01zM141.849 137.054c-3.67.63-7.43 1.18-7.43 1.18-22.36 2.56-30.85 0-36.23-1.56-8.36-2.47-3.59-21.86-11.41-30.11s-9.43-10.9-16-9c-6.57 1.9-8-2.81-8.8-3.26.18 1.26-2.28 5.71-4.26 6.34l-1.46 5.36-5-5.35c-6.37-1.25-13.26-6.58-13.26-6.58-.39.81 1 5.27-6.25 3.45-4.07-1-16.85.22-22.7 14.68-12.21 30.15-4.39 64.36 5.05 72.12 5.5 4.52 62.46 12 62.46 12l.08 2.54 5.68 1.31c-.33-7.76 5.09-13.19 5.09-13.19l-5.41-1.29h14.86c-1.27-29.98-3.66-45.69-3.66-45.69s-4.83 25.42 12.3 23c11.65-1.65 28.77-9.73 39-15-4.92-4.59-2.65-10.95-2.65-10.95zM58.25 94.055l.01.01-.01-.01z"/><path fill="#292289" d="M58.25 94.055l.01.01-.01-.01z"/><path fill="#152D5D" d="M6.478 111.735c3.84-11.26 15.52-15.17 21.14-15.68l10.41-2s6 23.82 17.61 39.68l1.78 38.95 25.42 13-.16.16a13.997 13.997 0 00-3.68 10.95l.08 2.54-2.37-.52s-35.07-7.48-52.88-11.52c-1.48-.34-2.84-.66-4.05-1l-16.13-4s-8.06-38.62 2.83-70.56z"/><path fill="#152D5D" d="M136.527 137.915l-2.11.32c-22.36 2.56-31.109.71-36.23-1.56-5.12-2.27-2.33-16.44-6.35-27.08-2.69-7.11-5.53-14.46-16.35-15.54l-13.55.23a12.36 12.36 0 001.33 3l.2.12c.76.324 1.546.578 2.35.76 0 0 5.75 17.86 3.52 35.18l7.44 49.91 6.06 2.43h14c-1.27-30-1.7-27.08-1.7-27.08s-6.79 6.85 10.341 4.43c9.75-1.38 24.659-3.52 34.82-8.5-1.541-2.53-4.711-10.72-3.771-16.62z"/><path fill="#0C2048" d="M53.6 139.554l-.78-5.17-2.89 4.39a56.583 56.583 0 01-9.13-12.77 50.13 50.13 0 009.09 14l2.85-4.34.86 3.89zM70.469 138.001l1.34-5 3.1 3s2.27-8.89 1.81-16.06a45.57 45.57 0 01-1.63 17.6l-3-3.08-1.62 3.54zM48.71 169.122s-5.71-3.31-7.91-3.12c-2.2.19-7.36 0-7.36 0s-2.65-13.82-2.65-19.76c0 0 .6 8.18 2.73 11.44s4.47 1.9 8.18 4.83 3.3 4.66 7.01 6.61z"/><path fill="#151563" d="M140.321 154.543s.46-1.2 0-4.41l-1.68.83a22.538 22.538 0 001.68 3.58z"/><path fill="#000" d="M76.668 182.544l-3.21-21.54-3-20.08-1.13-7.59a45.4 45.4 0 00.4-12.65c-.61-6.1-.34-13.77-3.42-20.84 0 0 1.35 6.24.9 10.71-.28 2.81-2.37 11.27-1 17.8 1.37 6.53 3.65 8.16 3.21 17.13-.44 8.97-.88 23.63 7.25 37.06z" opacity=".1"/><path fill="#594423" d="M75.93 66.643a25.997 25.997 0 00-2.25-6.32s-.11 3.07-3 2.18c-4.27-1.31-10.39-1.55-17 4.76-6.61 6.31-16-2.93-17.43-7.79-1.43-4.86-5.71-16.26-2.55-19.3 3.16-3.04 11.3 1.34 20.08-1.7 8.78-3.04 12.48-10.19 13.46-6.67a55.659 55.659 0 001.86 5.66s2.15-12.7-1.1-17.68-9.37-4.25-14.71-2.3c-5.34 1.95-11.17 1-14 1a16.318 16.318 0 00-12.7 7.13c-3.89 5.7-8.38 4.73-8.86 10-.48 5.27 6.93 15.37 8.86 17.22 1.3 1.23 4.67 7.38 7.63 13.82-.26.92-1 1.49-2.73 1.12a45.944 45.944 0 005.14 9.48c2.64 3.6 10.84 9 22.72 9.12a18.11 18.11 0 008.38-1.6c8.49-4.09 9.35-13.64 8.2-18.13z"/><path fill="#3E2F1C" d="M46.388 77.634c-4.68-.85-8.71-3-10.31-10.09-1.6-7.09-11.15-22.2-13.49-28.47s4.89-6.16 5.41-10.73c.33-2.85 2.74-6 4.5-8a16.34 16.34 0 00-5.92 5.3c-3.89 5.7-8.38 4.73-8.86 10-.48 5.27 6.93 15.37 8.86 17.22 1.3 1.23 4.67 7.38 7.63 13.82-.26.92-1 1.49-2.73 1.12a45.934 45.934 0 005.14 9.48c2.64 3.6 10.84 9 22.72 9.12 1.679.062 3.359-.09 5-.45-7.89 1.05-13.28-7.47-17.95-8.32z"/><path fill="#674F2D" d="M35.7 19.003s4.59 4 13 3.29c2.98-.23 11.4-5.48 14.81-3.29 3.41 2.19 5.1 5.86 3.73 12.78a55.659 55.659 0 001.86 5.66s2.15-12.68-1.1-17.66-9.37-4.25-14.71-2.3c-5.34 1.95-11.17 1-14 1a13.736 13.736 0 00-3.59.52zM75.927 66.644a25.998 25.998 0 00-2.25-6.32s-.11 3.07-3 2.18a15.31 15.31 0 00-11.81 1c.31-.07 10.74-2.53 13.58 2.16 2.84 4.69 2.38 11.64-1.21 16.75 5.18-4.66 5.66-12 4.69-15.77z"/><path fill="#00181B" d="M172.69 145.932s14.78 3.83 28.15-10.14 8.16-27.79 8.16-27.79l-43.34-5.85 7.03 43.78z"/><path fill="#F4C7C3" d="M169.098 127.672c2.014.13 4.018.387 6 .77 1.31.43 1.85.89 1.78 1.59-.07.7-1.47 1.24-3.25 1.2l-3.64-.08-.89-3.48z"/></svg>
